X:17
T:Quel plaisirs d'aimer. [FJ17]
S:Festin joyeux.  Music page 9.
Z:transcribed by Eric Conrad, 2021.
N:NB The meter is given simply as "2"
N:NB In the MS, the G is the bottom line of the staff
N:NB Repeat marks were added at beginning and end.
N:NB The MS repeat mark is 4 vertical dots enclosed by bars on both sides.
N:NB The plus signs seem to indicate some kind of roll or trill.
N:NB1 The dot is missing in the MS.
M:4/4
L:1/4
% K:C clef=treble1 % MS has G on line 1
K:C % no sharps or flats, ending on C
|: e>fed | c2c>B | "^+"A2A2 | f>gf>e | d>ec>d | "^+"B2B2 :|
|: d>dg>g | ccf>f | "^+"e2e2 | d>d"_NB1"d>e | c>e"^+"d>c | "^+"B2c2 :|

